X:1
T:Sisters Star Spangled Banner
T:Sisters Star Spangled Banner
%%score 1 2 3
L:1/8
M:3/4
K:C
V:1 treble nm="Soprano" snm="S."
V:2 treble nm="Alto" snm="A."
V:3 treble nm="Alto" snm="A."
V:1
 CA, | F,2 A,2 G2 | F4 A2 | GF A,2 B,2 | C4 CC | (A2- AG) F2 | E4 EE | F2 F2 C2 | A,2 F,2 CA, | %9
w: o- oh|say can you|see by|the dawns ear- ly|light what so|prou- d- ly we|hailed at the|twi- lights last|glea- ming whose broad|
 F,2 A,2 G2 | F4 AG | F2 A,2 B,2 | C4 CC | (A2- AG) F2 | E4 EE | F2 F2 C2 | A,2 F,2 AA | %17
w: stripes and bright|stars through the|per- a- lois|fight oh the|ra- m- parts we|watched were so|gal- lent- ly|strea- ming and the|
 A2 _B2 c2 | c4 _B2 | A2 G2 A2 | _B2 B4 | c2 A4 | GF E4 | DE F2 A2 | d4 (d2- | d2 c4-) | c2 _B4- | %27
w: ro- kets red|galre the|bombs bur- sting|in air|gave proof|through the night|that our flag was|still the-|e- e-|e- e-|
 B2 z2 c2 | c2 c2 c2 | _B2 B2 B2 | _B2 d2 c2 | _B2 c4 | c6- | c4 CC | (F2- FG) A_B | c6 | _B6 | %37
w: re oh|say does that|star span- gled|ba- ne- r|ye- t|wa-|ve oh the|la- a- nd of the|fre-||
 E_G _A4 | _A_G (E4 | _E)=E _A4 | FG _B4 | _A_B _d4 | (_e_d c4) | c6 |] %44
w: and the home|of the bra-|a- a- a-|a- a- a-|a- a- ave|th- e- e|brave|
V:2
 CA, | F,2 A,2 E2 | (E2 D2) E2 | ED A,2 B,2 | C4 CC | (F2- FE) D2 | C4 EE | F2 F2 C2 | %8
 A,2 F,2 CA, | F,2 A,2 E2 | (E2 D2) EE | D2 A,2 B,2 | C4 CC | (F2- FE) C2 | B,4 CD | F2 F2 C2 | %16
 A,2 F,2 FF | F2 _G2 _A2 | (_A2 _G2) _E2 | E2 D2 E2 | _G2 G4 | _G2 F4 | ED B,4 | DE F2 F2 | %24
 _B4 ((B2 | _B4)) (G2 | (G6) | (G2) z2) c2 | cA A2 AF | F2 _G2 =G2 | G2 A2 _A2 | G2 _A4 | %32
 ((A2 G4-) | G4) CC | (((C2 C)))D EF | G6 | F2 E4 | CD E4 | ED C4 | B,C E4 | _D_E G4 | EG _B4 | %42
 A6 | (A(G) G4) |] %44
V:3
 CA, | F,2 F,2 C2 | A,4 C2 | CA, A,2 C2 | C4 CC | ((D2 D))C A,2 | A,4 EE | F2 F2 C2 | A,2 F,2 CA, | %9
 F,2 A,2 B,2 | A,4 CC | C2 A,2 C2 | C4 CC | ((D2 D))C A,2 | G,4 CD | F2 F2 C2 | A,2 F,2 CC | %17
 C2 _D2 _E2 | (_E2 C2) _D2 | _D2 B,2 D2 | _D2 D4 | _E2 C4 | CB, G,4 | DE F2 C2 | (((F4 (F2)) | %25
 (F6)) | (_E6) | (_E2) z2) c2 | cA A2 ED | D2 D2 D2 | D2 E2 _E2 | D2 _E4 | ((F4 (E2) | E4)) CC | %34
 A,2 A,B, CD | E2 _E2 D2 | _D6 | A,A, B,4 | B,A, G,4 | _G,=G, B,4 | _A,_B, D4 | B,D F4 | E6 | E6 |] %44

